material/.icons/material/folder-key-network-outline.svg

<svg xmlns="http://www.w3.org/2000/svg" viewBox="0 0 24 24"><path d="M9 8c-1.66 0-3 1.34-3 3s1.34 3 3 3c1.31 0 2.42-.83 2.83-2H14v2h2v-2h1v-2h-5.17A2.99 2.99 0 009 8m0 4c-.55 0-1-.45-1-1s.45-1 1-1 1 .45 1 1-.45 1-1 1m6 8c0-.55-.45-1-1-1h-1v-2h6c1.11 0 2-.89 2-2V7a2 2 0 00-2-2h-6l-2-2H5c-1.1 0-2 .9-2 2v10a2 2 0 002 2h6v2h-1c-.55 0-1 .45-1 1H2v2h7c0 .55.45 1 1 1h4c.55 0 1-.45 1-1h7v-2h-7M5 15V7h14v8H5z"/></svg>

<?xml version="1.0" encoding="UTF-8"?><!DOCTYPE svg PUBLIC "-//W3C//DTD SVG 1.1//EN" "http://www.w3.org/Graphics/SVG/1.1/DTD/svg11.dtd"><svg xmlns="http://www.w3.org/2000/svg" xmlns:xlink="http://www.w3.org/1999/xlink" version="1.1" id="mdi-folder-key-network-outline" width="24" height="24" viewBox="0 0 24 24"><path d="M9 8C7.34 8 6 9.34 6 11S7.34 14 9 14C10.31 14 11.42 13.17 11.83 12H14V14H16V12H17V10H11.83C11.42 8.83 10.31 8 9 8M9 12C8.45 12 8 11.55 8 11S8.45 10 9 10 10 10.45 10 11 9.55 12 9 12M15 20C15 19.45 14.55 19 14 19H13V17H19C20.11 17 21 16.11 21 15V7C21 5.9 20.11 5 19 5H13L11 3H5C3.9 3 3 3.9 3 5V15C3 16.11 3.9 17 5 17H11V19H10C9.45 19 9 19.45 9 20H2V22H9C9 22.55 9.45 23 10 23H14C14.55 23 15 22.55 15 22H22V20H15M5 15V7H19V15H5Z" /></svg>
